FrontEnd/src/assets/images/menu/tables.svg

<?xml version="1.0" encoding="UTF-8" standalone="no"?>
<svg
   style="enable-background:new 0 0 50 50;"
   version="1.1"
   viewBox="0 0 50 50"
   xml:space="preserve"
   id="svg7"
   sodipodi:docname="tables.svg"
   inkscape:version="1.1 (c68e22c387, 2021-05-23)"
   xmlns:inkscape="http://www.inkscape.org/namespaces/inkscape"
   xmlns:sodipodi="http://sodipodi.sourceforge.net/DTD/sodipodi-0.dtd"
   xmlns="http://www.w3.org/2000/svg"
   xmlns:svg="http://www.w3.org/2000/svg"><defs
     id="defs11" /><sodipodi:namedview
     id="namedview9"
     pagecolor="#ffffff"
     bordercolor="#666666"
     borderopacity="1.0"
     inkscape:pageshadow="2"
     inkscape:pageopacity="0.0"
     inkscape:pagecheckerboard="0"
     showgrid="false"
     inkscape:zoom="16.64"
     inkscape:cx="24.969952"
     inkscape:cy="24.969952"
     inkscape:window-width="1920"
     inkscape:window-height="1017"
     inkscape:window-x="-8"
     inkscape:window-y="-8"
     inkscape:window-maximized="1"
     inkscape:current-layer="svg7" /><g
     id="Layer_1"
     style="fill:#fcfcfc;stroke:#fcfcfc"><path
       d="M 48,2 H 2 V 48 H 48 Z M 46,13 H 37 V 4 h 9 z M 26,13 V 4 h 9 v 9 z m 9,2 v 9 H 26 V 15 Z M 24,13 H 15 V 4 h 9 z m 0,2 v 9 H 15 V 15 Z M 13,24 H 4 v -9 h 9 z m 0,2 v 9 H 4 v -9 z m 2,0 h 9 v 9 h -9 z m 9,11 v 9 h -9 v -9 z m 2,0 h 9 v 9 h -9 z m 0,-2 v -9 h 9 v 9 z m 11,-9 h 9 v 9 h -9 z m 0,-2 v -9 h 9 v 9 z M 13,4 v 9 H 4 V 4 Z M 4,37 h 9 v 9 H 4 Z m 33,9 v -9 h 9 v 9 z"
       id="path2"
       style="fill:#fcfcfc;stroke:#fcfcfc" /></g><g
     id="g5"
     style="fill:#fcfcfc;stroke:#fcfcfc" /></svg>

<?xml version="1.0" ?><svg style="enable-background:new 0 0 50 50;" version="1.1" viewBox="0 0 50 50" xml:space="preserve" xmlns="http://www.w3.org/2000/svg" xmlns:xlink="http://www.w3.org/1999/xlink"><g id="Layer_1"><path d="M48,2H2v46h46V2z M46,13h-9V4h9V13z M26,13V4h9v9H26z M35,15v9h-9v-9H35z M24,13h-9V4h9V13z M24,15v9h-9v-9H24z M13,24H4   v-9h9V24z M13,26v9H4v-9H13z M15,26h9v9h-9V26z M24,37v9h-9v-9H24z M26,37h9v9h-9V37z M26,35v-9h9v9H26z M37,26h9v9h-9V26z M37,24   v-9h9v9H37z M13,4v9H4V4H13z M4,37h9v9H4V37z M37,46v-9h9v9H37z"/></g><g/></svg>
